X:241
T:Florida Blues
C:David Grisman solo (from CD: Doc & Dawg)
N:Transcribed by Wendy Anthony 1 June 2005
L:1/8
Q:1/4=220
M:4/4
K:D
z8 | "Dawg's first bre""D"fe fa zA df | zd Bd BD FB | AF EF DE FA | (3=cBA FB AF EF | 
"G"DE =FE FE DB, | G,A, B,D =FE DF | "D"E8 | z2 z2 =FE DF | "A"E8 | =FE FE DE DB, | 
"D"{B,}DD DD DE FA | dd d2 =f^f za | fA df ed BA | (3=cBA FB AF EF | DE FA =cB AB | 
"D"AF EF DE =FE | "G"DE DB, G,A, B,D | =FE FE DE DB, | "D"A,2 zB, z2 D2 | zD ED FE DF | 
"A"ED CE DB, A,B, | A,G, CE =FE DE | "D"D2 DE FA Bd | z4 d'4 | 
 

